X:668
T:Reel 668
M:4/4
K:Dmaj
L:1/8
D>F (3FEF GFEC|D>F (3FEF GFEC|D>F (3FEF GFED|CEA,E CEA,E:||2DFGE D2|:c2|ec (3dcB cAcd|cdec dfed|c<AAA cABA|| (3def ed cABc:||2cded c2|cA|B
